!!!!SEGMENT: pl-kk--kk-i-88--004-002_golabek-jakub--missa-4ta-christe.krn
!!!cenid: 17xx:2591
!!!COM: Gołąbek, Jakub
!!!COM-rismID: pe30008748
!!!CDT: 1739-1789/03/30
!!!CNT: Polish
!!!OPR: Missa 4ta
!!!OTL: Christe
!!!OMV: 002
!!!PDT:
!!!AGN: Sacred; Mass
!!!YEC: Copyright 2022 Narodowy Instytut Fryderyka Chopina (https://polishscores.org)
!!!YEM: License CC-BY-4.0 (https://creativecommons.org/licenses/by/4.0)
!!!SMS-siglum: PL-Kk
!!!SMS-shelfmark: Kk.I.88
!!!SMS-variant:
!!!SMS-altvar:
!!!SMS-shelfwork: 004-002 M
!!!NIFC-rismSourceID: 1001164072
!!!NIFC-rismChildID: 1001164083
!!!NIFC-islandoraID:
!!!URL-pdf-islandora: https://repozytorium.nifc.pl/islandora/object/pl-kk%3A3086/datastream/PDF/view
!!!URL-scan: https://polish.musicsources.pl/pl/lokalizacje/galeria/rekopisy/6148-missa/4 @EN{Scan on Polish Music Sources Website} @PL{Skany w portalu Dziedzictwo Muzyki Polskiej w otwartym dostępie}
!!!IIIF:
!!!ONB-nifc: UWAGA: C - f. 8r-9v; A - f. 16r-17v; T - f. 24r-25v; B - f. 37r-39v; B rip - f. 37r-39v. Proszę uwzględniać B rip. Części Mszy: 1. Kyrie, 2. Christe, 3. Et in terra, 4. Sanctus, 5, Benedictus, 6. Osanna, 7. Agnus Dei.
!!!AIN: 1 alto 2 bass 1 soprn 1 tenor
!!!key:
**kern	**text	**kern	**text	**kern	**text	**kern	**text	**kern	**text
*part5	*part5	*part4	*part4	*part3	*part3	*part2	*part2	*part1	*part1
*staff5	*staff5	*staff4	*staff4	*staff3	*staff3	*staff2	*staff2	*staff1	*staff1
*I"Baſso	*	*I"Baſso	*	*I"Tenore	*	*I"Alto	*	*I"Canto	*
*I'B rip	*	*I'B	*	*I'T	*	*I'A	*	*I'S	*
*Ibass	*	*Ibass	*	*Itenor	*	*Ialto	*	*Isoprn	*
*ICvox	*	*ICvox	*	*ICvox	*	*ICvox	*	*ICvox	*
*clefF4	*	*clefF4	*	*clefC4	*	*clefC3	*	*clefC1	*
*k[b-e-]	*	*k[b-e-]	*	*k[b-e-]	*	*k[b-e-]	*	*k[b-e-]	*
*g:	*	*g:	*	*g:	*	*g:	*	*g:	*
*M2/2	*	*M2/2	*	*M2/2	*	*M2/2	*	*M2/2	*
*met(c|)	*	*met(c|)	*	*met(c|)	*	*met(c|)	*	*met(c|)	*
=1	=1	=1	=1	=1	=1	=1	=1	=1	=1
*	*	*	*	*	*	*2\right	*	*	*
4G\	Chri-	4G\	Chri-	4G/	Chri-	2d\	Chri-	4b-\	Chri-
4F#X\	.	4F#X\	.	4A/	.	.	.	4cc\	-ste
4G\	-ste	4G\	-ste	8c/L	-ste	4d\	-ste	8ee-\L	.
.	.	.	.	8B-/J	.	.	.	8dd\J	.
4G\	e-	4G\	e-	8A/L	e-	4d\	e-	8cc\L	e-
.	.	.	.	8G/J	.	.	.	8b-\J	.
=2	=2	=2	=2	=2	=2	=2	=2	=2	=2
*2\right	*	*2\right	*	*	*	*	*	*	*
2d\	-lei-	2d\	-lei-	4G/	-lei-	2d\	-lei-	4b-\	-lei-
.	.	.	.	4F#X/	.	.	.	4a\	.
*	*	*	*	*	*	*	*	*2\right	*
2D/	-son	2D/	-son	2F#/	-son	2d\	-son.	2a\	-son
=3	=3	=3	=3	=3	=3	=3	=3	=3	=3
*	*	*	*	*2\right	*	*	*	*	*
4A\	Chri-	4A\	Chri-	2c\	Chri-	2f#X\	Chri-	2ee-X\	Chri-
4F#X\	.	4F#X\	.	.	.	.	.	.	.
4D\	-ste	4D\	-ste	4B-\	-ste	(4g\	-ste	4dd\	-ste
4D\	e-	4D\	e-	4A\	e-	4f#\)	e-	4cc\	e-
=4	=4	=4	=4	=4	=4	=4	=4	=4	=4
4G\	-lei-	4G\	-lei-	4G\	-lei-	4g\	-lei-	4b-\	-lei-
4D\	.	4D\	.	4A\	.	4f\	.	4cc\	.
2GG/	-son.	2GG/	-son.	2B-\	-son	2g\	-son.	2dd\	-son.
=5	=5	=5	=5	=5	=5	=5	=5	=5	=5
2BB-X/	Chri-	2BB-X/	Chri-	2B-\	Chri-	4fn\	Chri-	4dd\	Chri-
.	.	.	.	.	.	(8e-X\L	.	8cc\L	.
.	.	.	.	.	.	8f\J)	.	8dd\J	.
8BB-/L	-ste	8BB-/L	-ste	4B-\	-ste	4g\	-ste	4ee-\	-ste
8C/J	.	8C/J	.	.	.	.	.	.	.
8D/L	e-	8D/L	e-	4B-\	e-	4f\	e-	4dd\	e-
8E-X/J	.	8E-X/J	.	.	.	.	.	.	.
=6	=6	=6	=6	=6	=6	=6	=6	=6	=6
2F\	-lei-	2F\	-lei-	2A\	-lei-	4f\	-lei-	4dd\	-lei-
.	.	.	.	.	.	4e-\	.	4cc\	.
2F\	-son.	2F\	-son.	2A\	-son	2e-\	-son	2cc\	-son
!	!	!	!	!	!	!LO:LB:g=original	!	!	!
=7	=7	=7	=7	=7	=7	=7	=7	=7	=7
2F\	Chri-	2F\	Chri-	2A\	Chri-	4e-\	Chri-	4cc\	Chri-
.	.	.	.	.	.	8d\L	-ste	8b-\L	.
.	.	.	.	.	.	8e-\J	.	8cc\J	.
4F\	-ste	4F\	-ste	4B-\	-ste	4f\	.	4dd\	-ste
8G\L	e-	8G\L	e-	4A\	e-	4e-\	e-	4cc\	e-
8A\J	.	8A\J	.	.	.	.	.	.	.
!LO:LB:g=original	!	!LO:LB:g=original	!	!LO:LB:g=original	!	!	!	!LO:LB:g=original	!
=8	=8	=8	=8	=8	=8	=8	=8	=8	=8
4B-\	-lei-	4B-\	-lei-	2F/	-lei-	4e-\	-lei-	4cc\	-lei-
4F\	.	4F\	.	.	.	4d\	.	4b-\	.
2BB-/	-son,	2BB-/	-son,	2F/	-son	2d\	-son	2b-\	-son.
=9	=9	=9	=9	=9	=9	=9	=9	=9	=9
2D\	Chri-	2D\	Chri-	4c\	Chri-	4f#X\	Chri-	4a\	Chri-
.	.	.	.	4B-\	.	4g\	.	4b-\	.
2D\	-ste	2D\	-ste	4A\	-ste	4a\	-ste	4cc\	-ste
.	.	.	.	4c\	e-	4f#\	e-	4a\	e-
=10	=10	=10	=10	=10	=10	=10	=10	=10	=10
4G\	e-	4G\	e-	4B-\	-lei-	4g\	-lei-	4b-\	-lei-
4D\	.	4D\	.	4A\	.	(4a\	.	4cc\	.
4BB-/	.	4BB-/	.	4G/	-son	4b-\	.	4dd\	.
4C/	.	4C/	.	4G/	e-	8a\L	.	8cc\L	.
.	.	.	.	.	.	8g\J)	.	8b-\J	.
=11	=11	=11	=11	=11	=11	=11	=11	=11	=11
1D	-lei-	1D	-lei-	1d	-lei-	(2g\	.	2b-\	.
.	.	.	.	.	.	2f\)	.	2a\	.
=12	=12	=12	=12	=12	=12	=12	=12	=12	=12
2GG/	-son	2GG/	-son	2d\	-son	2g\	-son	2b-\	-son
2r	.	2r	.	2r	.	2r	.	2r	.
=13	=13	=13	=13	=13	=13	=13	=13	=13	=13
2D\	Chri-	2D\	Chri-	4F#X/	Chri-	2d\	Chri-	4a\	chri-
.	.	.	.	4G/	-ste	.	.	4b-\	.
.	.	.	.	.	.	.	.	8qqdd/	.
4F#X\	-ste	4F#X\	-ste	4A/	.	4d\	-ste	4cc\	-ste
4D\	e-	4D\	e-	8G/L	e-	4d\	e-	8b-\L	e-
.	.	.	.	8F#/J	.	.	.	8a\J	.
=14	=14	=14	=14	=14	=14	=14	=14	=14	=14
4G\	-lei-	4G\	-lei-	4G/	-lei-	2g\	-lei-	4b-\	-lei-
4F\	.	4F\	.	4A/	.	.	.	4cc\	.
4G\	.	4G\	.	8B-/L	.	4g\	-son	8dd\L	.
.	.	.	.	8c/J	.	.	.	8ee-\J	.
4E-X\	.	4E-X\	.	8B-/L	.	4e-\	e-	8dd\L	.
.	.	.	.	8A/J	.	.	.	8cc\J	.
=15	=15	=15	=15	=15	=15	=15	=15	=15	=15
1D	.	1D	.	2G/	.	1d	-lei-	2b-\	.
.	.	.	.	2F/	.	.	.	2a\	.
=16	=16	=16	=16	=16	=16	=16	=16	=16	=16
!LO:TX:b:t=Kyrie\nda\nCapo	!	!LO:TX:b:t=Kyrie da\nCapo	!	!	!	!	!	!LO:TX:b:t=Kyrie da Capo	!
1GG	-son	1GG	-son.	1G	-son	1d	-son	1b-	-son
==	==	==	==	==	==	==	==	==	==
*-	*-	*-	*-	*-	*-	*-	*-	*-	*-
!!!system-decoration: [(s1,s2,s3,s4)]s5
!!!ENC: Berenika Jozajtis
!!!END: 2024-02-29
!!!EED: Andrzej Borzym
!!!END: 2025-02-16
